!!!!SEGMENT: pl-kk--kk-i-6--018_anonim--alleluia-virga-jesse-floruit.krn
!!!cenid: 16xx:973
!!!COM: Anonim
!!!COM-rismid: pe30004985
!!!CDT:
!!!CNT:
!!!OTL: Alleluia virga Jesse floruit
!!!PDT:
!!!AGN: Sacred
!!!SMS-siglum: PL-Kk
!!!SMS-shelfmark: Kk.I.6
!!!SMS-shelfwork: 018 W
!!!SMS-variant:
!!!SMS-altvar:
!!!NIFC-rismid: 1001135799
!!!URL-scan: http://repozytorium.nifc.pl/skany/pl-kk-nut--i-6
!!!ONB-nifc: UWAGA: C (skan 0013-0014, s. 23-24), T (skan 0115-0116, s. 35-37), B (skan 0226-0227, s. 33-35) Następny utwór: Alleluia Ave Maria
!!!key:
**kern	**text	**kern	**text	**kern	**text
*part3	*part3	*part2	*part2	*part1	*part1
*staff3	*staff3	*staff2	*staff2	*staff1	*staff1
*Iempty	*	*Itenor	*	*Ivox	*
*I"Baſsus.	*	*I"Tenor.	*	*I"Cantus.	*
*I'B	*	*I'T	*	*I'S	*
*clefF4	*	*clefC3	*	*clefC4	*
*k[]	*	*k[]	*	*k[]	*
*C:	*	*C:	*	*C:	*
*M2/1	*	*M2/1	*	*M2/1	*
*met(C|)	*	*met(C|)	*	*met(C|)	*
=1-	=1-	=1-	=1-	=1-	=1-
!	!	!	!	!LO:TX:t=P:problem=w źródle przed kluczem inicjał A	!
!LO:TX:t=P:problem=w źródle przed kluczem inicjał A	!	!LO:TX:t=P:problem=w źródle przed kluczem inicjał A	!	!	!
1rD	.	2A/	Al-	1D	Al-
!	!	!LO:TX:t=P:problem=all\middle or left&colon; global	!	!	!
.	.	2.d\	-le-	.	.
1GG	Al-	.	.	1G	-le-
!	!	!LO:TX:t=P:problem=4/middle or right&colon; global	!	!	!
.	.	4c/	.	.	.
.	.	2B/	.	.	.
=2-	=2-	=2-	=2-	=2-	=2-
*	*	*lig	*	*	*
2C/	-le-	1c	.	1G	-lu-
!LO:TX:t=P:problem=all\middle or left&colon; global	!	!	!	!	!
2E\	-lu-	.	.	.	.
*	*	*	*	*lig	*
1D	-ia	1d	.	1A	.
*	*	*Xlig	*	*	*
=3-	=3-	=3-	=3-	=3-	=3-
*	*ij	*	*	*	*
1GG	Al-	2d\	-lu-	1G	.
.	.	2B/	.	.	.
*	*	*	*	*Xlig	*
!LO:TX:t=P:problem=4/middle or right&colon; global	!	!	!	!	!
*	*	*	*	*lig	*
4AA/	.	1e	-ia	1c	.
4BB/	.	.	.	.	.
4C/	.	.	.	.	.
4D/	.	.	.	.	.
=4-	=4-	=4-	=4-	=4-	=4-
2E\	-le-	2r	.	1B	.
*	*	*	*ij	*	*
2G\	.	2B/	Al-	.	.
*	*	*	*	*Xlig	*
1F	.	2.c/	-le-	1A	.
.	.	4d\	.	.	.
=5-	=5-	=5-	=5-	=5-	=5-
*	*	*	*	*lig	*
1.E	.	4e\	.	1B	.
.	.	4f\	.	.	.
.	.	2g\	.	.	.
*	*	*lig	*	*	*
.	.	1e	-lu-	1G	.
2C/	.	.	.	.	.
*	*	*	*	*Xlig	*
=6-	=6-	=6-	=6-	=6-	=6-
!	!	!LO:SIC:v:t=custos e	!	!	!
*	*	*	*	*lig	*
1F	-lu-	1c	-ia	1A	.
!	!	!LO:LB:g=original	!	!	!
*	*	*Xlig	*	*	*
!LO:SIC:v:t=custos FF	!	!	!	!	!
1C	-ia	2e\	Al-	1G	.
.	.	2.c/	-le-	.	.
*	*	*	*	*Xlig	*
!LO:LB:g=original	!	!	!	!	!
=7-	=7-	=7-	=7-	=7-	=7-
*	*	*	*	*lig	*
2.FF/	Al-	.	.	1F	.
.	.	4B/	.	.	.
.	.	1A	.	.	.
4GG/	.	.	.	.	.
1AA	-le-	.	.	1E	.
.	.	2A/	.	.	.
*	*	*	*	*Xlig	*
=8-	=8-	=8-	=8-	=8-	=8-
1D	-lu-	2.A/	.	1F	-ia
.	.	4B/	.	.	.
!LO:TX:t=P:problem=kreska pseudotaktowa	!	!	!	!LO:SIC:v:t=custos d	!
!	!	!	!	!LO:TX:t=P:problem=kreska pseudotaktowa	!
1C	-ia	4c/	.	1G;<	.
.	.	4d\	-lu-	.	.
!	!	!LO:TX:t=P:problem=kreska pseudotaktowa	!	!	!
.	.	2e\	-ia	.	.
!	!	!	!	!LO:LB:g=original	!
=9-	=9-	=9-	=9-	=9-	=9-
2r	.	2d\	Al-	1d	al-
*lig	*	*	*	*	*
1G	Al-	1B	-le-	.	.
*	*	*	*	*lig	*
.	.	.	.	1e	.
1A\	.	2c/	.	.	.
*Xlig	*	*	*	*	*
=10-	=10-	=10-	=10-	=10-	=10-
.	.	1.A	.	1c	.
*lig	*	*	*	*	*
1F	.	.	.	.	.
*	*	*	*	*Xlig	*
*	*	*	*	*lig	*
.	.	.	.	1d	.
1G\	.	2B/	.	.	.
*Xlig	*	*	*	*	*
=11-	=11-	=11-	=11-	=11-	=11-
.	.	2B/	.	1G	.
2C/	-le-	2c/	.	.	.
*	*	*	*	*Xlig	*
1G	-lu-	2.d\	.	1B	.
.	.	4e\	.	.	.
=12-	=12-	=12-	=12-	=12-	=12-
*	*	*lig	*	*lig	*
4D/	.	1f	lu-	1d	.
4E\	.	.	.	.	.
4F\	.	.	.	.	.
4G\	.	.	.	.	.
2A\	.	1e	.	1c	.
2AA/	.	.	.	.	.
*	*	*	*	*Xlig	*
=13-	=13-	=13-	=13-	=13-	=13-
!	!	!LO:SIC:v:t=custos B	!	!	!
*	*	*	*	*lig	*
2.BB/	.	0d	.	1B	.
4C/	.	.	.	.	.
!LO:SIC:v:t=custos E	!	!	!	!	!
1D	-ia	.	.	1A	.
*	*	*Xlig	*	*Xlig	*
!LO:LB:g=original	!	!LO:LB:g=original	!	!	!
=14-	=14-	=14-	=14-	=14-	=14-
2E\	Al-	2B/	.	1G	.
1C	.	1c	.	.	.
.	.	.	.	1A	-le-
2.AA/	-le-	2c/	.	.	.
=15-	=15-	=15-	=15-	=15-	=15-
*	*	*	*	*lig	*
.	.	2c/	.	1c	-lu-
4BB/	.	.	.	.	.
4C/	.	1A	.	.	.
4D/	.	.	.	.	.
1E	.	.	.	1B	.
!	!	!LO:TX:t=P:♯below:problem	!	!	!
.	.	2G#X/	.	.	.
*	*	*	*	*Xlig	*
=16-	=16-	=16-	=16-	=16-	=16-
*	*	*	*	*lig	*
1AA	.	2A/	.	1A	.
.	.	2c/	.	.	.
*	*	*lig	*	*	*
2BB/	.	1B	.	1G	.
2GG/	.	.	.	.	.
*	*	*	*	*Xlig	*
=17-	=17-	=17-	=17-	=17-	=17-
1D	-lu-	1d	.	1A	-ia
*	*	*Xlig	*	*	*
!LO:N:vis=0	!	!LO:N:vis=0	!	!LO:N:vis=0	!
1GGl;;	-ia	1dl;;	-ia	1Gl;;	.
*	*Xij	*	*Xij	*	*
!LO:LB:g=original	!	!	!	!LO:LB:g=original	!
=18-	=18-	=18-	=18-	=18-	=18-
*M2/1	*	*	*	*M2/1	*
*met(C|)	*	*	*	*met(C|)	*
!LO:TX:t=P:problem=w źródle przed kluczem inicjał V	!	!LO:TX:t=P:problem=w źródle inicjał V przed pauzą 2r	!	!LO:TX:t=P:problem=w źródle przed kluczem inicjał V	!
0rE	.	2re	.	1G	Vir-
.	.	1g	Vir-	.	.
*	*	*	*	*lig	*
.	.	.	.	1A	.
!	!	!LO:TX:t=P:problem=♯ pood nutą g	!	!	!
!	!	!LO:TX:t=P:♯below:problem	!	!	!
.	.	2f#X\	-ga	.	.
=19-	=19-	=19-	=19-	=19-	=19-
!	!	!LO:SIC:l:v:s=Jes-	!	!	!
1GG	Vir-	2.g\	Je-	1G	.
.	.	4fny\	.	.	.
*lig	*	*	*	*Xlig	*
*	*	*	*	*lig	*
1AA	.	4e\	.	1c	.
.	.	4d\	.	.	.
!	!	!LO:SIC:v:t=custos d	!	!	!
.	.	2c/	.	.	.
!	!	!LO:LB:g=original	!	!	!
=20-	=20-	=20-	=20-	=20-	=20-
1GG	.	1d	.	1B	.
*Xlig	*	*	*	*Xlig	*
2C/	.	2e\	.	1A	.
2D/	.	2d\	.	.	.
=21-	=21-	=21-	=21-	=21-	=21-
*lig	*	*	*	*	*
!	!	!	!	!LO:TX:t=P:global:problem=oddech jako rozdzielacz słów	!
1E	.	1B	-se	1G,<	-ga
*	*	*	*	*lig	*
1C	.	1c	.	1G	Jeſ-
*Xlig	*	*	*	*	*
=22-	=22-	=22-	=22-	=22-	=22-
*lig	*	*lig	*	*	*
1BB	.	1d	Vir-	1d	.
*	*	*	*	*Xlig	*
*	*	*	*	*lig	*
1C	.	1c	.	1e	-se
*Xlig	*	*Xlig	*	*	*
=23-	=23-	=23-	=23-	=23-	=23-
2C/	.	1.g	.	1c	.
2E\	-ga	.	.	.	.
*	*	*	*	*Xlig	*
*	*	*	*	*lig	*
1D	Jeſ-	.	.	1d	.
!	!	!LO:TX:t=P:♯below:problem	!	!	!
.	.	2f#X\	.	.	.
=24-	=24-	=24-	=24-	=24-	=24-
2GG/	-se	1g	-ga	1B	.
1G	Vir-	.	.	.	.
*	*	*	*	*Xlig	*
.	.	1r	.	1A	.
!LO:TX:t=P:♯below:problem	!	!	!	!	!
!LO:SIC:v:t=custos G	!	!	!	!	!
2F#X\	-ga	.	.	.	.
!LO:LB:g=original	!	!	!	!	!
=25-	=25-	=25-	=25-	=25-	=25-
!	!	!	!	!LO:SIC:v:t=custos c	!
2G\	Jeſ-	2r	.	1B	.
2E\	-se	1e	Vir-	.	.
*lig	*	*	*	*lig	*
!	!	!	!	!LO:LB:g=original	!
1A	flo-	.	.	1c	.
.	.	2c/	-ga	.	.
=26-	=26-	=26-	=26-	=26-	=26-
1G	.	1d	Jeſ-	1B	.
*Xlig	*	*	*	*Xlig	*
*lig	*	*	*	*lig	*
1D	.	2d\	-se	1A	.
.	.	1d\	flo-	.	.
=27-	=27-	=27-	=27-	=27-	=27-
1E	.	.	.	1G,<	.
!	!	!LO:TX:t=P:problem=♯ pood nutą d	!	!	!
!	!	!LO:TX:t=P:♯below:problem	!	!	!
.	.	2c#X/	-ru-	.	.
*Xlig	*	*	*	*Xlig	*
*	*	*	*	*lig	*
!	!	!LO:SIC:v:t=custos A	!	!	!
1D	-ru-	0d	-it	1A	flo-
=28-	=28-	=28-	=28-	=28-	=28-
!LO:TX:t=P:global:problem=oddech jako rozdzielacz słów	!	!	!	!	!
1GG,<	-it	.	.	1G	.
*lig	*	*	*	*Xlig	*
*	*	*	*	*lig	*
!	!	!LO:LB:g=original	!	!	!
1D	flo-	2r	.	1F	.
.	.	4A/	flo-	.	.
.	.	4B/	.	.	.
=29-	=29-	=29-	=29-	=29-	=29-
1AA	.	4cny/	.	1E	.
.	.	4d\	.	.	.
.	.	2e\	.	.	.
*Xlig	*	*	*	*Xlig	*
*lig	*	*	*	*	*
1FF	.	4A/	.	1F	-ru-
.	.	4B/	.	.	.
.	.	4c/	.	.	.
.	.	4d\	.	.	.
=30-	=30-	=30-	=30-	=30-	=30-
*	*	*lig	*	*	*
1C	.	1e	.	1G,<	-it
*Xlig	*	*	*	*lig	*
1GG	.	1d	.	1G	Vir-
*	*	*Xlig	*	*	*
=31-	=31-	=31-	=31-	=31-	=31-
1D	-ru-	1d	-ru-	1A	.
*	*	*	*	*Xlig	*
*	*	*lig	*	*lig	*
!LO:SIC:v:t=custos F	!	!	!	!	!
1GG	-it	1d	-it	1B	.
!LO:PB:g=original	!	!	!	!	!
=32-	=32-	=32-	=32-	=32-	=32-
2r	.	1c	.	1A	.
1Fny	Vir-	.	.	.	.
*	*	*Xlig	*	*Xlig	*
*	*	*	*	*lig	*
.	.	2rB	.	1c	.
2C/	-go	2c/	Vir-	.	.
=33-	=33-	=33-	=33-	=33-	=33-
*lig	*	*	*	*	*
1E	De-	1Gny	-go	1B	.
*	*	*	*	*Xlig	*
*	*	*	*	*lig	*
1D	.	2.A/	De-	1d	.
.	.	4B/	.	.	.
*Xlig	*	*	*	*	*
=34-	=34-	=34-	=34-	=34-	=34-
*lig	*	*	*	*	*
!	!	!	!	!LO:SIC:v:t=custos B	!
1A	.	4c/	.	1c	.
.	.	4d\	.	.	.
!	!	!LO:SIC:v:t=custos e	!	!	!
.	.	2e\	.	.	.
!	!	!LO:PB:g=original	!	!LO:LB:g=original	!
*	*	*	*	*Xlig	*
!	!	!LO:TX:t=P:global:problem=oddech jako rozdzielacz słów	!	!	!
*	*	*	*	*lig	*
1E	.	2e,<\	-um	1B	.
.	.	1e\	et	.	.
*Xlig	*	*	*	*	*
=35-	=35-	=35-	=35-	=35-	=35-
!	!	!	!	!LO:TX:t=P:problem=kreska pseudotaktowa	!
1AA	-um	.	.	1A	.
.	.	4e\	.	.	.
.	.	4fny\	ho-	.	.
*Xlig	*	*	*	*Xlig	*
*	*	*	*	*lig	*
2rAA	.	2.g\	.	1B	-go
2GG/	et	.	.	.	.
.	.	4f\	.	.	.
=36-	=36-	=36-	=36-	=36-	=36-
*lig	*	*	*	*	*
1C	ho-	4e\	.	1G,<	.
.	.	4d\	.	.	.
.	.	2c/	.	.	.
*	*	*	*	*Xlig	*
*	*	*	*	*lig	*
1GG	.	1B	.	1G	De-
*Xlig	*	*	*	*	*
=37-	=37-	=37-	=37-	=37-	=37-
1D	.	2d\	.	1A	.
.	.	2A/	-[mi]-	.	.
*	*	*	*	*Xlig	*
*	*	*	*	*lig	*
2.AA/	.	1.A	-nem	1c	.
4BB/	.	.	.	.	.
=38-	=38-	=38-	=38-	=38-	=38-
4C/	.	.	.	1G	.
!LO:N:vis=4.	!	!	!	!	!
4D/	.	.	.	.	.
2E\	.	2B/	et	.	.
*	*	*	*	*Xlig	*
*	*	*	*	*lig	*
2.D/	.	1.d	ho-	1A	.
4D/	-mi-	.	.	.	.
=39-	=39-	=39-	=39-	=39-	=39-
!LO:SIC:v:t=custos D	!	!	!	!	!
1GG	-nem	.	.	1G	.
.	.	2B/	-mi-	.	.
*	*	*	*	*Xlig	*
*	*	*	*	*lig	*
!LO:LB:g=original	!	!	!	!	!
1D	ge-	2A/	-nem	1F	.
.	.	1A/	ge-	.	.
=40-	=40-	=40-	=40-	=40-	=40-
1AA	-nu-	.	.	1E	.
.	.	2A/	-nu-	.	.
*	*	*lig	*	*Xlig	*
1D	-it	1A	-it	1F	.
=41-	=41-	=41-	=41-	=41-	=41-
!	!	!LO:SIC:v:t=custos g	!	!	!
2rC	.	1B	.	1G,<	-um
1E	Vir-	.	.	.	.
*	*	*Xlig	*	*	*
!	!	!LO:LB:g=original	!	!	!
.	.	0rA	.	1G	et
2BB/	-go	.	.	.	.
=42-	=42-	=42-	=42-	=42-	=42-
*	*	*	*	*lig	*
1C	De-	.	.	1G	ho-
!	!	!	!	!LO:SIC:v:t=custos c	!
2AA/	-um	1rc	.	1A	.
2D/	et	.	.	.	.
*	*	*	*	*Xlig	*
!	!	!	!	!LO:LB:g=original	!
=43-	=43-	=43-	=43-	=43-	=43-
*	*	*	*	*lig	*
4C/	ho-	2r	.	1c	.
4D/	.	.	.	.	.
4E\	.	1g	Vir-	.	.
4F\	.	.	.	.	.
*lig	*	*	*	*	*
1G	.	.	.	1B	.
.	.	2d\	-go	.	.
*	*	*	*	*Xlig	*
=44-	=44-	=44-	=44-	=44-	=44-
1C	.	1e	De-	1c	.
*Xlig	*	*	*	*	*
1F	-mi-	2c/	-um	1A	-mi-
.	.	2d\	et	.	.
=45-	=45-	=45-	=45-	=45-	=45-
1E	-nem	1.e	ho-	1B,<	-nem
*lig	*	*	*	*lig	*
1A	ge-	.	.	1c	ge-
.	.	2c/	-mi-	.	.
=46-	=46-	=46-	=46-	=46-	=46-
!LO:SIC:v:t=custos C	!	!	!	!	!
*	*	*lig	*	*	*
1G	.	1d	-nem	1B	.
*Xlig	*	*	*	*Xlig	*
*	*	*	*	*lig	*
!LO:LB:g=original	!	!	!	!	!
1C	.	1e	.	1c	.
*	*	*Xlig	*	*	*
=47-	=47-	=47-	=47-	=47-	=47-
1D	-nu-	2.d\	ge-	1A	.
.	.	4c/	.	.	.
*	*	*	*	*Xlig	*
1.GG	-it	1B	.	1G	.
=48-	=48-	=48-	=48-	=48-	=48-
*	*	*	*	*lig	*
.	.	4c/	.	1A	.
.	.	4B/	.	.	.
4AA/	ge-	4c/	.	.	.
4BB/	.	4d\	.	.	.
4C/	.	1e	.	1G	.
4D/	.	.	.	.	.
2E\	.	.	.	.	.
*	*	*	*	*Xlig	*
=49-	=49-	=49-	=49-	=49-	=49-
*	*	*	*	*lig	*
1D	-nu-	2A/	-nu-	1F	.
!	!	!LO:SIC:v:t=custos G	!	!	!
.	.	2d\	.	.	.
*	*	*lig	*	*	*
!	!	!LO:LB:g=original	!	!	!
1C	-it	1G	-it	1E	.
*	*	*	*	*Xlig	*
=50-	=50-	=50-	=50-	=50-	=50-
1r	.	1A,<	.	1F	-nu-
*	*	*Xlig	*	*	*
!	!	!	!	!LO:SIC:v:t=custos d	!
2r	.	1d	Pa-	1G,<	-it
1G\	pa-	.	.	.	.
!	!	!	!	!LO:PB:g=original	!
=51-	=51-	=51-	=51-	=51-	=51-
.	.	1G	-cem	1d	pa-
2GG/	.	.	.	.	.
1GG	-cem	1.g	pa-	1G,<	-cem
=52-	=52-	=52-	=52-	=52-	=52-
1.G	pa-	.	.	1d	De-
.	.	2d\	-cem	.	.
*	*	*	*	*lig	*
.	.	2B/	De-	1e	.
2A\	-cem	1c\	-us	.	.
=53-	=53-	=53-	=53-	=53-	=53-
2F\	De-	.	.	1d	.
!LO:SIC:v:t=custos E	!	!	!	!	!
2G\	-us	1B	red-	.	.
*	*	*	*	*Xlig	*
*	*	*	*	*lig	*
!LO:LB:g=original	!	!	!	!	!
2E\	red-	.	.	1c	.
2F\	-di-	2A/	-di-	.	.
=54-	=54-	=54-	=54-	=54-	=54-
1D	-dit	1A	-dit	1d	.
*	*	*	*	*Xlig	*
*	*	*	*	*lig	*
1G	pa-	2.B/	De-	1d	-us
.	.	4A/	.	.	.
=55-	=55-	=55-	=55-	=55-	=55-
1GG	-cem	4B/	.	1B,<	.
.	.	4c/	.	.	.
.	.	1d	.	.	.
*	*	*	*	*Xlig	*
1G	pa-	.	.	1d	red-
.	.	2.g\	.	.	.
=56-	=56-	=56-	=56-	=56-	=56-
2C/	-cem	.	.	1c	-di-
.	.	4f\	.	.	.
1C	De-	4e\	.	.	.
!	!	!LO:SIC:v:t=custos e	!	!	!
.	.	4d\	.	.	.
*	*	*	*	*lig	*
!	!	!LO:LB:g=original	!	!	!
.	.	1e	.	1c	-dit
2AA/	-us	.	.	.	.
=57-	=57-	=57-	=57-	=57-	=57-
2.E\	red-	0e	-us	1B	.
4E\	-di-	.	.	.	.
*	*	*	*	*Xlig	*
1AA	-dit	.	.	1A	.
=58-	=58-	=58-	=58-	=58-	=58-
*	*	*lig	*	*lig	*
2rC	.	1e	red-	1c	.
2AA/	red-	.	.	.	.
2.BB/	-di-	1d	.	1B	.
4C/	.	.	.	.	.
*	*	*Xlig	*	*Xlig	*
=59-	=59-	=59-	=59-	=59-	=59-
!	!	!	!	!LO:SIC:v:t=custos B	!
2D/	.	1d	-di-	1A	.
!LO:SIC:v:t=custos GG	!	!	!	!	!
2D/	.	.	.	.	.
*	*	*	*	*lig	*
!LO:LB:g=original	!	!	!	!LO:LB:g=original	!
1GG	-dit	0d	-dit	1B	.
=60-	=60-	=60-	=60-	=60-	=60-
2rC	.	.	.	1G,<	.
1C	in	.	.	.	.
*	*	*	*	*Xlig	*
.	.	1r	.	1G,<	in
2E\	ſe	.	.	.	.
=61-	=61-	=61-	=61-	=61-	=61-
*	*	*	*	*lig	*
2D/	re-	2r	.	1A	ſe
2F\	-con-	2c/	in	.	.
2.E\	-ci-	1e	ſe	1B,<	.
4E\	-li-	.	.	.	.
*	*	*	*	*Xlig	*
=62-	=62-	=62-	=62-	=62-	=62-
*	*	*lig	*	*	*
1E	-ans	1e	re-	1B	re-
1D	i-	1f	.	1d	-con-
=63-	=63-	=63-	=63-	=63-	=63-
*lig	*	*col	*	*	*
1AA	-ma	1e	.	1c	-ci-
*	*	*Xlig	*	*lig	*
1E	.	1B	-con-	1B	.
*Xlig	*	*Xcol	*	*	*
=64-	=64-	=64-	=64-	=64-	=64-
*lig	*	*lig	*	*	*
1AA	ſum-	1c	-ci-	1A	.
*	*	*	*	*Xlig	*
1GG	.	1d	.	1B	.
*Xlig	*	*Xlig	*	*	*
=65-	=65-	=65-	=65-	=65-	=65-
1C	-mis	2c/	-li-	1G	-li-
.	.	2G/	-ans	.	.
*	*	*	*	*lig	*
2rC	.	1.c	re-	1A	-ans
2AA/	in	.	.	.	.
=66-	=66-	=66-	=66-	=66-	=66-
2C/	ſe	.	.	1G	.
!LO:SIC:v:t=custos D	!	!	!	!	!
2BB/	re-	1d	-con-	.	.
!LO:LB:g=original	!	!	!	!	!
*	*	*	*	*Xlig	*
*	*	*	*	*lig	*
1D	-con-	.	.	1F	.
!	!	!LO:SIC:v:t=custos c	!	!	!
.	.	2A/	-ci-	.	.
!	!	!LO:LB:g=original	!	!	!
=67-	=67-	=67-	=67-	=67-	=67-
2.C/	-ci-	2.c/	-ci-	1E	.
4C/	-li-	4c/	-li-	.	.
*	*	*	*	*Xlig	*
*	*	*	*	*lig	*
1FF	-ans	1c	-ans	1F	.
=68-	=68-	=68-	=68-	=68-	=68-
!	!	!	!	!LO:SIC:v:t=custos D	!
0r	.	4B/	i-	1G	.
.	.	4G/	-ma	.	.
.	.	1g	ſum-	.	.
*	*	*	*	*Xlig	*
!	!	!	!	!LO:LB:g=original	!
.	.	.	.	1D	i-
!	!	!LO:TX:a:t=P:problem=# below	!	!	!
.	.	2f#X\	.	.	.
=69-	=69-	=69-	=69-	=69-	=69-
1r	.	2g\	-mis	1G	-ma
.	.	1d	i-	.	.
*	*	*	*	*lig	*
2r	.	.	.	1G	.
1C/	i-	4e\	-ma	.	.
.	.	4d\	.	.	.
=70-	=70-	=70-	=70-	=70-	=70-
.	.	4c/	.	1A	.
.	.	4B/	.	.	.
2D/	-ma	2A/	.	.	.
*	*	*	*	*Xlig	*
1E	ſum-	2e\	.	1G	.
*	*	*lig	*	*	*
.	.	1B/	ſum-	.	.
=71-	=71-	=71-	=71-	=71-	=71-
*	*	*	*	*lig	*
4AA/	.	.	.	1c	ſum-
4BB/	.	.	.	.	.
4C/	.	1A	.	.	.
4D/	.	.	.	.	.
1E	.	.	.	1B	.
*	*	*Xlig	*	*Xlig	*
!	!	!LO:TX:t=P:problem=♯above	!	!	!
.	.	2G#X/	.	.	.
=72-	=72-	=72-	=72-	=72-	=72-
1AA	-mis	1A	-mis	1A	.
*	*	*	*	*lig	*
1rD	.	1.d	i-	1B	.
=73-	=73-	=73-	=73-	=73-	=73-
2rC	.	.	.	1G	.
1C	i-	4e\	-ma	.	.
!	!	!LO:SIC:v:t=custos c	!	!	!
.	.	4d\	.	.	.
*	*	*	*	*Xlig	*
*	*	*	*	*lig	*
!	!	!LO:LB:g=original	!	!	!
.	.	4c/	.	1A	.
.	.	4B/	.	.	.
2D/	-ma	2A/	.	.	.
=74-	=74-	=74-	=74-	=74-	=74-
2E\	ſum-	2Gny/	.	1G	.
!LO:SIC:v:t=custos D	!	!	!	!	!
2C/	.	1c	ſum-	.	.
!LO:PB:g=original	!	!	!	!	!
*	*	*	*	*Xlig	*
*	*	*	*	*lig	*
1D	.	.	.	1F	.
.	.	2B/	.	.	.
=75-	=75-	=75-	=75-	=75-	=75-
1AA	-mis	2c/	-mis	1E	.
.	.	1e	i-	.	.
*	*	*	*	*Xlig	*
1D	.	.	.	1F	.
.	.	2.d\	-ma	.	.
=76-	=76-	=76-	=76-	=76-	=76-
1GG	.	.	.	1G;;	-mis
.	.	4c/	.	.	.
.	.	4B/	.	.	.
!	!	!LO:TX:t=P:problem=kreska pseudotaktowa	!	!	!
.	.	4G/	.	.	.
0rC	.	1g	ſum-	1ryy	.
!	!	!	!	!LO:LB:g=original	!
=77-	=77-	=77-	=77-	=77-	=77-
!	!	!LO:TX:a:t=P:problem=# below	!	!	!
.	.	2f#X\	.	1ryy	.
.	.	1g	-mis	.	.
*	*	*	*	*lig	*
1rD	.	.	.	1d	.
.	.	2ryy	.	.	.
=78-	=78-	=78-	=78-	=78-	=78-
2rC	.	1ryy	.	1e	.
1C	in	.	.	.	.
*	*	*	*	*Xlig	*
.	.	2rA	.	1c	.
2E\	ſe	2G/	in	.	.
=79-	=79-	=79-	=79-	=79-	=79-
*	*	*	*	*lig	*
2D/	re-	2B/	ſe	1d	.
2F\	-con-	2A/	re-	.	.
1.E	-ci-	2B/	-con-	1G	.
.	.	1B/	-ci-	.	.
*	*	*	*	*Xlig	*
=80-	=80-	=80-	=80-	=80-	=80-
*	*	*	*	*lig	*
.	.	.	.	1B	.
!	!	!LO:SIC:v:t=custos A	!	!	!
2E\	-li-	2G/	-li-	.	.
!	!	!LO:LB:g=original	!	!	!
1D	-ans	2A/	-ans	1d	.
.	.	4A/	i-	.	.
.	.	4B/	.	.	.
*	*	*	*	*Xlig	*
=81-	=81-	=81-	=81-	=81-	=81-
*	*	*	*	*lig	*
4AA/	i-	4c/	.	1c	.
4BB/	.	4d\	.	.	.
4C/	.	1e	.	.	.
4D/	.	.	.	.	.
2E\	.	.	.	1B	.
2E\	-ma	2B/	-ma	.	.
*	*	*	*	*Xlig	*
=82-	=82-	=82-	=82-	=82-	=82-
2.AA/	ſum-	0c	ſum-	1A	.
4BB/	.	.	.	.	.
1C	.	.	.	1G	.
=83-	=83-	=83-	=83-	=83-	=83-
!LO:SIC:v:t=custos F	!	!	!	!	!
*	*	*	*	*lig	*
1FF	-mis	1c,<	-mis	1A	.
*	*	*	*ij	*	*
!LO:LB:g=original	!	!	!	!	!
2r	.	2e\	i-	1c	.
*	*ij	*	*	*	*
2F\	in	1fny\	.	.	.
*	*	*	*	*Xlig	*
=84-	=84-	=84-	=84-	=84-	=84-
2D/	ſe	.	.	1B	.
2E\	.	1e	-ma	.	.
*	*	*	*	*lig	*
2C/	re-	.	.	1A	.
2D/	con-	2d\	ſum-	.	.
=85-	=85-	=85-	=85-	=85-	=85-
2BB/	-ci-	0d	-mis	1G	.
2GG/	.	.	.	.	.
*	*	*	*	*Xlig	*
1D	-li-	.	.	1A	.
=86-	=86-	=86-	=86-	=86-	=86-
2GG/	-ans	1r	.	000Gl;;	.
2.G\	i-	.	.	.	.
.	.	2r	.	.	.
4F\	.	.	.	.	.
4E\	.	2.g\	i-	.	.
4D/	.	.	.	.	.
=87-	=87-	=87-	=87-	=87-	=87-
1.C	.	.	.	.	.
.	.	4f\	.	.	.
.	.	4e\	.	.	.
.	.	4d\	.	.	.
.	.	2c/	.	.	.
2BB/	-ma	2d\	-ma	.	.
=88-	=88-	=88-	=88-	=88-	=88-
0C	ſum-	2.e\	ſum-	.	.
.	.	4d\	.	.	.
.	.	1c	.	.	.
=89-	=89-	=89-	=89-	=89-	=89-
0GGl;;	-mis	0Bl;;	-mis	.	.
*	*Xij	*	*Xij	*	*
=-	=-	=-	=-	=-	=-
*-	*-	*-	*-	*-	*-
!!!system-decoration: [(s1,s2,s3)]
!!!RDF**kern: l = terminal long
!!!RDF**kern: > = above
!!!RDF**kern: < = below
!!!EED: Antoni Szymański
!!!EST: 2021-03-21
!!!AIN: 1 empty 1 tenor 1 vox
!!!ENC: Andrzej Borzym
!!!END: 2021-03-07
